src/assets/img/components/townhouse-picker/townhouse-big.svg

<svg xmlns="http://www.w3.org/2000/svg" width="124" height="218" fill="none"><g stroke="#F2CFBE" clip-path="url(#a)"><path stroke-width="2" d="M1.5 44 61.961 4 123.5 44v173H1.5V44Z"/><path stroke-width="2" d="M16.0505 165.181h37.04v46.061h-37.04v-46.061ZM16.0505 165.181h91.3655V158.6H16.0505v6.581Z"/><path d="M16.0505 165.181h18.9316v46.061H16.0505v-46.061Z"/><path d="M16.0505 165.181h27.9858v46.061H16.0505v-46.061Z"/><path d="M16.0505 165.181h9.0543v46.061h-9.0543v-46.061Z"/><path d="M16.0505 176.696h37.04v34.547h-37.04v-34.547Z"/><path d="M16.0505 176.696h18.9316v34.547H16.0505v-34.547Z"/><path d="M16.0505 188.212h37.04v23.031h-37.04v-23.031Z"/><path d="M16.0505 188.212h18.9316v23.031H16.0505v-23.031Z"/><path stroke-width="2" d="M34.9822 165.181v46.061"/><path d="M16.0505 200.55h37.04v10.693h-37.04V200.55Z"/><path d="M16.0505 200.55h18.9316v10.693H16.0505V200.55Z"/><path stroke-width="2" d="M47.3289 49.7734h28.8088v34.7994H47.3289V49.7734ZM47.3289 49.7734h28.8088v-6.3271H47.3289v6.3271Z"/><path d="M47.3289 84.5723h-14.816V50.026h14.816v34.5463ZM90.9539 84.5723h-14.816V50.026h14.816v34.5463Z"/><path stroke-width="2" d="M62.145 50.5635v34.0084"/><path d="M47.3289 72.2344h28.8088v11.5154H47.3289V72.2344Z"/><path d="M47.3289 61.542h28.8088v10.6929H47.3289V61.542ZM47.3289 50.0264h28.8088v11.5154H47.3289V50.0264Z"/><path stroke-width="2" d="M47.3289 87.8633h28.8088v-3.2901H47.3289v3.2901ZM16.0505 149.554h91.3655v-4.113H16.0505v4.113ZM16.0505 102.669h91.3655v-6.58H16.0505v6.58ZM16.0505 102.669h37.04v42.772h-37.04v-42.772Z"/><path d="M16.0505 102.669h18.9316v42.772H16.0505v-42.772Z"/><path d="M16.0505 102.669h27.9858v42.772H16.0505v-42.772Z"/><path d="M16.0505 102.669h9.0543v42.772h-9.0543v-42.772Z"/><path d="M16.0505 113.73h37.04v31.711h-37.04V113.73Z"/><path d="M16.0505 113.73h18.9316v31.711H16.0505V113.73Z"/><path d="M16.0505 124.055h37.04v21.386h-37.04v-21.386Z"/><path d="M16.0505 124.055h18.9316v21.386H16.0505v-21.386Z"/><path stroke-width="2" d="M34.9822 102.669v42.772"/><path d="M16.0505 135.116h37.04v10.324h-37.04v-10.324Z"/><path d="M16.0505 135.116h18.9316v10.324H16.0505v-10.324Z"/><path stroke-width="2" d="M70.3757 102.669h37.0403v42.772H70.3757v-42.772Z"/><path d="M70.3757 102.669h18.9316v42.772H70.3757v-42.772Z"/><path d="M70.3757 102.669h27.9858v42.772H70.3757v-42.772Z"/><path d="M70.3757 102.669h9.0542v42.772h-9.0542v-42.772Z"/><path d="M70.3757 113.73h37.0403v31.711H70.3757V113.73Z"/><path d="M70.3757 113.73h18.9316v31.711H70.3757V113.73Z"/><path d="M70.3757 124.055h37.0403v21.386H70.3757v-21.386Z"/><path d="M70.3757 124.055h18.9316v21.386H70.3757v-21.386Z"/><path stroke-width="2" d="M89.3074 102.669v42.772"/><path d="M70.3757 135.116h37.0403v10.324H70.3757v-10.324Z"/><path d="M70.3757 135.116h18.9316v10.324H70.3757v-10.324Z"/><path stroke-width="2" d="M70.3757 165.181h37.0403V217H70.3757v-51.819Z"/><path stroke-width="2" d="M70.3757 165.181h37.0403V217H70.3757v-51.819Z"/><path d="M70.3757 214.532h37.0403V217H70.3757v-2.468ZM70.3757 212.064h37.0403v2.468H70.3757v-2.468Z"/><path d="M78.6069 169.293h20.5778v42.772H78.6069v-42.772Z"/><path d="M81.8997 172.583h13.9928v23.853H81.8997v-23.853ZM81.8997 208.774h13.9928v-9.87H81.8997v9.87ZM1 41.39V44L62 4l62 40v-2.5L62 1 1 41.39ZM13.9927 81.694h11.112m-9.8774 1.6451h11.9352m-17.697 1.645h11.1121m-2.8809-1.645V81.694m3.2924 1.6451V81.694m3.2925 1.6451V81.694m-1.6463 3.7014v-1.6451m-3.2924 1.6451v-1.6451m-3.2924 1.6451v-1.6451m1.6462 3.2902v-1.6451m-3.704 1.6451v-1.6451m5.3502-4.1126v-1.6451m-3.2924 1.6451v-1.6451M104.124 45.5023H93.0115m9.8775-1.6451H90.9538m17.6972-1.645H97.5386m2.8814 1.645v1.6451m-3.2929-1.6451v1.6451m-3.2925-1.6451v1.6451m1.6463-3.7014v1.645m3.2924-1.645v1.645m3.2927-1.645v1.645m-1.646-3.2901v1.6451m3.704-1.6451v1.6451m-5.3507 4.1126v1.6451m3.2927-1.6451v1.6451"/><path d="M124.5 9h-50L124 41.5V44M118.116 13.835v5.7577"/></g><defs><clipPath id="a"><path fill="#fff" d="M0 0h124v218H0z"/></clipPath></defs></svg>

<svg width="125" height="218" viewBox="0 0 125 218" fill="none" xmlns="http://www.w3.org/2000/svg">
<path d="M1.50005 44L61.9609 4L123.5 44V217H1.5L1.50005 44Z" stroke="#F2CFBE" stroke-width="2"/>
<path d="M16.0507 165.181H53.0906V211.242H16.0507V165.181Z" stroke="#F2CFBE" stroke-width="2"/>
<path d="M16.0507 165.181H107.416V158.6H16.0507V165.181Z" stroke="#F2CFBE" stroke-width="2"/>
<path d="M16.0507 165.181H34.9822V211.242H16.0507V165.181Z" stroke="#F2CFBE"/>
<path d="M16.0507 165.181H44.0364V211.242H16.0507V165.181Z" stroke="#F2CFBE"/>
<path d="M16.0507 165.181H25.1049V211.242H16.0507V165.181Z" stroke="#F2CFBE"/>
<path d="M16.0507 176.696H53.0906V211.243H16.0507V176.696Z" stroke="#F2CFBE"/>
<path d="M16.0507 176.696H34.9822V211.243H16.0507V176.696Z" stroke="#F2CFBE"/>
<path d="M16.0507 188.212H53.0906V211.243H16.0507V188.212Z" stroke="#F2CFBE"/>
<path d="M16.0507 188.212H34.9822V211.243H16.0507V188.212Z" stroke="#F2CFBE"/>
<path d="M34.9822 165.181V211.242" stroke="#F2CFBE" stroke-width="2"/>
<path d="M16.0507 200.55H53.0906V211.243H16.0507V200.55Z" stroke="#F2CFBE"/>
<path d="M16.0507 200.55H34.9822V211.243H16.0507V200.55Z" stroke="#F2CFBE"/>
<path d="M47.3289 49.7734H76.1377V84.5728H47.3289V49.7734Z" stroke="#F2CFBE" stroke-width="2"/>
<path d="M47.3289 49.7734H76.1377V43.4463H47.3289V49.7734Z" stroke="#F2CFBE" stroke-width="2"/>
<path d="M47.3289 84.5723H32.5129V50.026H47.3289V84.5723Z" stroke="#F2CFBE"/>
<path d="M90.9539 84.5723H76.1379V50.026H90.9539V84.5723Z" stroke="#F2CFBE"/>
<path d="M62.1449 50.5635L62.1449 84.5719" stroke="#F2CFBE" stroke-width="2"/>
<path d="M47.3289 72.2344H76.1377V83.7498H47.3289V72.2344Z" stroke="#F2CFBE"/>
<path d="M47.3289 61.542H76.1377V72.2349H47.3289V61.542Z" stroke="#F2CFBE"/>
<path d="M47.3289 50.0264H76.1377V61.5418H47.3289V50.0264Z" stroke="#F2CFBE"/>
<path d="M47.3289 87.8633H76.1377V84.5732H47.3289V87.8633Z" stroke="#F2CFBE" stroke-width="2"/>
<path d="M16.0507 149.554H107.416V145.441H16.0507V149.554Z" stroke="#F2CFBE" stroke-width="2"/>
<path d="M16.0507 102.669H107.416V96.089H16.0507V102.669Z" stroke="#F2CFBE" stroke-width="2"/>
<path d="M16.0507 102.669H53.0906V145.441H16.0507V102.669Z" stroke="#F2CFBE" stroke-width="2"/>
<path d="M16.0507 102.669H34.9822V145.441H16.0507V102.669Z" stroke="#F2CFBE"/>
<path d="M16.0507 102.669H44.0364V145.441H16.0507V102.669Z" stroke="#F2CFBE"/>
<path d="M16.0507 102.669H25.1049V145.441H16.0507V102.669Z" stroke="#F2CFBE"/>
<path d="M16.0507 113.73H53.0906V145.441H16.0507V113.73Z" stroke="#F2CFBE"/>
<path d="M16.0507 113.73H34.9822V145.441H16.0507V113.73Z" stroke="#F2CFBE"/>
<path d="M16.0507 124.055H53.0906V145.441H16.0507V124.055Z" stroke="#F2CFBE"/>
<path d="M16.0507 124.055H34.9822V145.441H16.0507V124.055Z" stroke="#F2CFBE"/>
<path d="M34.9823 102.669V145.441" stroke="#F2CFBE" stroke-width="2"/>
<path d="M16.0507 135.116H53.0906V145.44H16.0507V135.116Z" stroke="#F2CFBE"/>
<path d="M16.0507 135.116H34.9822V145.44H16.0507V135.116Z" stroke="#F2CFBE"/>
<path d="M70.376 102.669H107.416V145.441H70.376V102.669Z" stroke="#F2CFBE" stroke-width="2"/>
<path d="M70.376 102.669H89.3075V145.441H70.376V102.669Z" stroke="#F2CFBE"/>
<path d="M70.376 102.669H98.3617V145.441H70.376V102.669Z" stroke="#F2CFBE"/>
<path d="M70.376 102.669H79.4302V145.441H70.376V102.669Z" stroke="#F2CFBE"/>
<path d="M70.376 113.73H107.416V145.441H70.376V113.73Z" stroke="#F2CFBE"/>
<path d="M70.376 113.73H89.3075V145.441H70.376V113.73Z" stroke="#F2CFBE"/>
<path d="M70.376 124.055H107.416V145.441H70.376V124.055Z" stroke="#F2CFBE"/>
<path d="M70.376 124.055H89.3075V145.441H70.376V124.055Z" stroke="#F2CFBE"/>
<path d="M89.3076 102.669V145.441" stroke="#F2CFBE" stroke-width="2"/>
<path d="M70.376 135.116H107.416V145.44H70.376V135.116Z" stroke="#F2CFBE"/>
<path d="M70.376 135.116H89.3075V145.44H70.376V135.116Z" stroke="#F2CFBE"/>
<path d="M70.3759 165.181H107.416V217H70.3759V165.181Z" stroke="#F2CFBE" stroke-width="2"/>
<path d="M70.3759 165.181H107.416V217H70.3759V165.181Z" stroke="#F2CFBE" stroke-width="2"/>
<path d="M70.3759 214.532H107.416V217H70.3759V214.532Z" stroke="#F2CFBE"/>
<path d="M70.3759 212.064H107.416V214.532H70.3759V212.064Z" stroke="#F2CFBE"/>
<path d="M78.6069 169.293H99.1847V212.065H78.6069V169.293Z" stroke="#F2CFBE"/>
<path d="M81.8995 172.583H95.8924V196.436H81.8995V172.583Z" stroke="#F2CFBE"/>
<path d="M81.8995 208.774H95.8924V198.904H81.8995V208.774Z" stroke="#F2CFBE"/>
<path d="M1 41.39V44L62 4L124 44V41.5L62 1L1 41.39Z" stroke="#F2CFBE"/>
<path d="M13.9928 81.694H25.1048M15.2275 83.3391H27.1626M9.4657 84.9841H20.5777M17.6968 83.3391V81.694M20.9892 83.3391V81.694M24.2817 83.3391V81.694M22.6355 85.3954V83.7503M19.343 85.3954V83.7503M16.0506 85.3954V83.7503M17.6968 87.0405V85.3954M13.9928 87.0405V85.3954M19.343 81.2828V79.6377M16.0506 81.2828V79.6377" stroke="#F2CFBE"/>
<path d="M104.124 45.5023L93.0115 45.5023M102.889 43.8572L90.9538 43.8572M108.651 42.2122L97.5386 42.2122M100.42 43.8572L100.42 45.5023M97.1271 43.8572L97.1271 45.5023M93.8346 43.8572L93.8346 45.5023M95.4809 41.8009L95.4809 43.4459M98.7733 41.8009L98.7733 43.4459M102.066 41.8009L102.066 43.4459M100.42 40.1558L100.42 41.8009M104.124 40.1558L104.124 41.8009M98.7733 45.9135L98.7733 47.5586M102.066 45.9135L102.066 47.5586" stroke="#F2CFBE"/>
<path d="M124.5 9H74.5L124 41.5V44" stroke="#F2CFBE"/>
<path d="M118.116 13.835V19.5927" stroke="#F2CFBE"/>
</svg>
